images/6603763.svg

<?xml version="1.0" encoding="UTF-8"?>
<svg xmlns="http://www.w3.org/2000/svg" xmlns:xlink="http://www.w3.org/1999/xlink" width="300pt" height="300pt" viewBox="0 0 300 300" version="1.1">
<defs>
<g>
<symbol overflow="visible" id="glyph0-0">
<path style="stroke:none;" d="M 0.640625 2.296875 L 0.640625 -9.171875 L 7.140625 -9.171875 L 7.140625 2.296875 Z M 1.375 1.578125 L 6.421875 1.578125 L 6.421875 -8.4375 L 1.375 -8.4375 Z M 1.375 1.578125 "/>
</symbol>
<symbol overflow="visible" id="glyph0-1">
<path style="stroke:none;" d="M 1.28125 -9.484375 L 3 -9.484375 L 7.203125 -1.546875 L 7.203125 -9.484375 L 8.453125 -9.484375 L 8.453125 0 L 6.71875 0 L 2.515625 -7.921875 L 2.515625 0 L 1.28125 0 Z M 1.28125 -9.484375 "/>
</symbol>
<symbol overflow="visible" id="glyph0-2">
<path style="stroke:none;" d="M 5.125 -8.609375 C 4.1875 -8.609375 3.441406 -8.257812 2.890625 -7.5625 C 2.347656 -6.875 2.078125 -5.929688 2.078125 -4.734375 C 2.078125 -3.535156 2.347656 -2.585938 2.890625 -1.890625 C 3.441406 -1.203125 4.1875 -0.859375 5.125 -0.859375 C 6.050781 -0.859375 6.785156 -1.203125 7.328125 -1.890625 C 7.878906 -2.585938 8.15625 -3.535156 8.15625 -4.734375 C 8.15625 -5.929688 7.878906 -6.875 7.328125 -7.5625 C 6.785156 -8.257812 6.050781 -8.609375 5.125 -8.609375 Z M 5.125 -9.65625 C 6.445312 -9.65625 7.503906 -9.207031 8.296875 -8.3125 C 9.097656 -7.414062 9.5 -6.222656 9.5 -4.734375 C 9.5 -3.234375 9.097656 -2.035156 8.296875 -1.140625 C 7.503906 -0.253906 6.445312 0.1875 5.125 0.1875 C 3.789062 0.1875 2.722656 -0.253906 1.921875 -1.140625 C 1.128906 -2.035156 0.734375 -3.234375 0.734375 -4.734375 C 0.734375 -6.222656 1.128906 -7.414062 1.921875 -8.3125 C 2.722656 -9.207031 3.789062 -9.65625 5.125 -9.65625 Z M 5.125 -9.65625 "/>
</symbol>
<symbol overflow="visible" id="glyph0-3">
<path style="stroke:none;" d="M 8.375 -8.75 L 8.375 -7.390625 C 7.9375 -7.796875 7.472656 -8.097656 6.984375 -8.296875 C 6.503906 -8.492188 5.988281 -8.59375 5.4375 -8.59375 C 4.351562 -8.59375 3.519531 -8.257812 2.9375 -7.59375 C 2.363281 -6.9375 2.078125 -5.984375 2.078125 -4.734375 C 2.078125 -3.484375 2.363281 -2.523438 2.9375 -1.859375 C 3.519531 -1.203125 4.351562 -0.875 5.4375 -0.875 C 5.988281 -0.875 6.503906 -0.972656 6.984375 -1.171875 C 7.472656 -1.367188 7.9375 -1.664062 8.375 -2.0625 L 8.375 -0.734375 C 7.925781 -0.421875 7.453125 -0.1875 6.953125 -0.03125 C 6.453125 0.113281 5.921875 0.1875 5.359375 0.1875 C 3.921875 0.1875 2.789062 -0.25 1.96875 -1.125 C 1.144531 -2.007812 0.734375 -3.210938 0.734375 -4.734375 C 0.734375 -6.253906 1.144531 -7.453125 1.96875 -8.328125 C 2.789062 -9.210938 3.921875 -9.65625 5.359375 -9.65625 C 5.921875 -9.65625 6.453125 -9.578125 6.953125 -9.421875 C 7.460938 -9.273438 7.9375 -9.050781 8.375 -8.75 Z M 8.375 -8.75 "/>
</symbol>
<symbol overflow="visible" id="glyph0-4">
<path style="stroke:none;" d="M 1.21875 -9.875 L 2.390625 -9.875 L 2.390625 0 L 1.21875 0 Z M 1.21875 -9.875 "/>
</symbol>
</g>
</defs>
<g id="surface51697">
<rect x="0" y="0" width="300" height="300" style="fill:rgb(100%,100%,100%);fill-opacity:1;stroke:none;"/>
<path style="fill:none;stroke-width:1.2;stroke-linecap:butt;stroke-linejoin:miter;stroke:rgb(0%,0%,0%);stroke-opacity:1;stroke-miterlimit:10;" d="M 197.214844 211.574219 L 205.023438 207.980469 "/>
<path style="fill:none;stroke-width:1.2;stroke-linecap:butt;stroke-linejoin:miter;stroke:rgb(0%,0%,100%);stroke-opacity:1;stroke-miterlimit:10;" d="M 205.023438 207.980469 L 212.828125 204.382812 "/>
<path style="fill:none;stroke-width:1.2;stroke-linecap:butt;stroke-linejoin:miter;stroke:rgb(0%,0%,100%);stroke-opacity:1;stroke-miterlimit:10;" d="M 212.828125 204.382812 L 224.605469 215.472656 "/>
<path style="fill:none;stroke-width:1.2;stroke-linecap:butt;stroke-linejoin:miter;stroke:rgb(0%,0%,0%);stroke-opacity:1;stroke-miterlimit:10;" d="M 224.605469 215.472656 L 236.378906 226.5625 "/>
<path style="fill:none;stroke-width:1.2;stroke-linecap:butt;stroke-linejoin:miter;stroke:rgb(0%,0%,0%);stroke-opacity:1;stroke-miterlimit:10;" d="M 226.644531 175.132812 L 219.738281 189.757812 "/>
<path style="fill:none;stroke-width:1.2;stroke-linecap:butt;stroke-linejoin:miter;stroke:rgb(0%,0%,100%);stroke-opacity:1;stroke-miterlimit:10;" d="M 219.738281 189.757812 L 212.828125 204.382812 "/>
<path style=" stroke:none;fill-rule:nonzero;fill:rgb(100%,100%,100%);fill-opacity:1;" d="M 207.828125 196.382812 L 217.828125 196.382812 L 217.828125 212.382812 L 207.828125 212.382812 Z M 207.828125 196.382812 "/>
<g style="fill:rgb(0%,0%,100%);fill-opacity:1;">
  <use xlink:href="#glyph0-1" x="207.828125" y="208.758789"/>
</g>
<path style="fill:none;stroke-width:1;stroke-linecap:butt;stroke-linejoin:miter;stroke:rgb(0%,0%,0%);stroke-opacity:1;stroke-miterlimit:10;" d="M 236.378906 226.5625 L 236.378906 226.5625 M 239.222656 225.601562 L 238.71875 224.6875 M 242.0625 224.636719 L 241.0625 222.808594 M 244.90625 223.675781 L 243.402344 220.933594 M 247.746094 222.714844 L 245.742188 219.054688 M 250.585938 221.75 L 248.082031 217.179688 M 253.429688 220.789062 L 250.421875 215.300781 M 256.269531 219.824219 L 252.761719 213.425781 M 259.113281 218.863281 L 255.101562 211.546875 M 261.953125 217.902344 L 257.445312 209.671875 M 264.792969 216.9375 L 259.785156 207.792969 M 267.492188 216.023438 L 262.007812 206.011719 "/>
<path style="fill:none;stroke-width:1.2;stroke-linecap:butt;stroke-linejoin:miter;stroke:rgb(0%,0%,0%);stroke-opacity:1;stroke-miterlimit:10;" d="M 204.59375 232.578125 L 236.378906 226.5625 "/>
<path style="fill:none;stroke-width:1.2;stroke-linecap:butt;stroke-linejoin:miter;stroke:rgb(0%,0%,0%);stroke-opacity:1;stroke-miterlimit:10;" d="M 264.75 211.019531 L 258.734375 179.234375 "/>
<path style="fill:none;stroke-width:1;stroke-linecap:butt;stroke-linejoin:miter;stroke:rgb(0%,0%,0%);stroke-opacity:1;stroke-miterlimit:10;" d="M 226.644531 175.132812 L 226.644531 175.132812 M 229.507812 176.023438 L 229.640625 174.992188 M 232.375 176.917969 L 232.636719 174.847656 M 235.238281 177.808594 L 235.632812 174.707031 M 238.101562 178.699219 L 238.632812 174.5625 M 240.96875 179.589844 L 241.628906 174.421875 M 243.832031 180.484375 L 244.625 174.277344 M 246.695312 181.375 L 247.621094 174.132812 M 249.558594 182.265625 L 250.617188 173.992188 M 252.425781 183.15625 L 253.613281 173.847656 M 255.289062 184.050781 L 256.609375 173.707031 M 258.007812 184.894531 L 259.457031 173.570312 "/>
<path style="fill:none;stroke-width:1.2;stroke-linecap:butt;stroke-linejoin:miter;stroke:rgb(0%,0%,0%);stroke-opacity:1;stroke-miterlimit:10;" d="M 226.644531 175.132812 L 194.175781 177.527344 "/>
<path style="fill:none;stroke-width:1.2;stroke-linecap:butt;stroke-linejoin:miter;stroke:rgb(0%,0%,0%);stroke-opacity:1;stroke-miterlimit:10;" d="M 194.175781 177.527344 L 183.492188 208.0625 "/>
<path style="fill:none;stroke-width:1.2;stroke-linecap:butt;stroke-linejoin:miter;stroke:rgb(0%,0%,0%);stroke-opacity:1;stroke-miterlimit:10;" d="M 183.492188 208.0625 L 204.59375 232.578125 "/>
<path style="fill:none;stroke-width:1.2;stroke-linecap:butt;stroke-linejoin:miter;stroke:rgb(0%,0%,0%);stroke-opacity:1;stroke-miterlimit:10;" d="M 183.492188 208.0625 L 167.601562 211.070312 "/>
<path style="fill:none;stroke-width:1.2;stroke-linecap:butt;stroke-linejoin:miter;stroke:rgb(100%,0%,0%);stroke-opacity:1;stroke-miterlimit:10;" d="M 167.601562 211.070312 L 151.707031 214.078125 "/>
<path style=" stroke:none;fill-rule:nonzero;fill:rgb(0%,0%,0%);fill-opacity:1;" d="M 130.605469 189.558594 L 147.378906 217.800781 L 156.035156 210.355469 Z M 130.605469 189.558594 "/>
<path style=" stroke:none;fill-rule:nonzero;fill:rgb(100%,100%,100%);fill-opacity:1;" d="M 146.707031 206.078125 L 157.707031 206.078125 L 157.707031 222.078125 L 146.707031 222.078125 Z M 146.707031 206.078125 "/>
<g style="fill:rgb(100%,0%,0%);fill-opacity:1;">
  <use xlink:href="#glyph0-2" x="146.707031" y="218.454102"/>
</g>
<path style="fill:none;stroke-width:1.2;stroke-linecap:butt;stroke-linejoin:miter;stroke:rgb(0%,0%,0%);stroke-opacity:1;stroke-miterlimit:10;" d="M 130.605469 189.558594 L 98.820312 195.578125 "/>
<path style="fill:none;stroke-width:1.2;stroke-linecap:butt;stroke-linejoin:miter;stroke:rgb(0%,0%,0%);stroke-opacity:1;stroke-miterlimit:10;" d="M 130.605469 189.558594 L 141.285156 159.023438 "/>
<path style="fill:none;stroke-width:1.2;stroke-linecap:butt;stroke-linejoin:miter;stroke:rgb(0%,0%,0%);stroke-opacity:1;stroke-miterlimit:10;" d="M 98.820312 195.578125 L 77.714844 171.058594 "/>
<path style="fill:none;stroke-width:1.2;stroke-linecap:butt;stroke-linejoin:miter;stroke:rgb(0%,0%,0%);stroke-opacity:1;stroke-miterlimit:10;" d="M 90.941406 198.089844 L 74.058594 178.476562 "/>
<path style="fill:none;stroke-width:1.2;stroke-linecap:butt;stroke-linejoin:miter;stroke:rgb(0%,0%,0%);stroke-opacity:1;stroke-miterlimit:10;" d="M 88.136719 226.113281 L 98.820312 195.578125 "/>
<path style="fill:none;stroke-width:1.2;stroke-linecap:butt;stroke-linejoin:miter;stroke:rgb(0%,0%,0%);stroke-opacity:1;stroke-miterlimit:10;" d="M 77.714844 171.058594 L 45.933594 177.074219 "/>
<path style="fill:none;stroke-width:1.2;stroke-linecap:butt;stroke-linejoin:miter;stroke:rgb(0%,0%,0%);stroke-opacity:1;stroke-miterlimit:10;" d="M 45.933594 177.074219 L 35.25 207.609375 "/>
<path style="fill:none;stroke-width:1.2;stroke-linecap:butt;stroke-linejoin:miter;stroke:rgb(0%,0%,0%);stroke-opacity:1;stroke-miterlimit:10;" d="M 52.046875 182.640625 L 43.503906 207.070312 "/>
<path style="fill:none;stroke-width:1.2;stroke-linecap:butt;stroke-linejoin:miter;stroke:rgb(0%,0%,0%);stroke-opacity:1;stroke-miterlimit:10;" d="M 35.25 207.609375 L 56.351562 232.128906 "/>
<path style="fill:none;stroke-width:1.2;stroke-linecap:butt;stroke-linejoin:miter;stroke:rgb(0%,0%,0%);stroke-opacity:1;stroke-miterlimit:10;" d="M 56.351562 232.128906 L 88.136719 226.113281 "/>
<path style="fill:none;stroke-width:1.2;stroke-linecap:butt;stroke-linejoin:miter;stroke:rgb(0%,0%,0%);stroke-opacity:1;stroke-miterlimit:10;" d="M 58.117188 224.046875 L 83.542969 219.234375 "/>
<path style="fill:none;stroke-width:1.2;stroke-linecap:butt;stroke-linejoin:miter;stroke:rgb(0%,0%,0%);stroke-opacity:1;stroke-miterlimit:10;" d="M 141.285156 159.023438 L 173.070312 153.007812 "/>
<path style="fill:none;stroke-width:1.2;stroke-linecap:butt;stroke-linejoin:miter;stroke:rgb(0%,0%,0%);stroke-opacity:1;stroke-miterlimit:10;" d="M 143.046875 150.945312 L 168.476562 146.132812 "/>
<path style="fill:none;stroke-width:1.2;stroke-linecap:butt;stroke-linejoin:miter;stroke:rgb(0%,0%,0%);stroke-opacity:1;stroke-miterlimit:10;" d="M 120.183594 134.507812 L 141.285156 159.023438 "/>
<path style="fill:none;stroke-width:1.2;stroke-linecap:butt;stroke-linejoin:miter;stroke:rgb(0%,0%,0%);stroke-opacity:1;stroke-miterlimit:10;" d="M 173.070312 153.007812 L 183.753906 122.472656 "/>
<path style="fill:none;stroke-width:1.2;stroke-linecap:butt;stroke-linejoin:miter;stroke:rgb(0%,0%,0%);stroke-opacity:1;stroke-miterlimit:10;" d="M 183.753906 122.472656 L 162.648438 97.957031 "/>
<path style="fill:none;stroke-width:1.2;stroke-linecap:butt;stroke-linejoin:miter;stroke:rgb(0%,0%,0%);stroke-opacity:1;stroke-miterlimit:10;" d="M 175.875 124.988281 L 158.992188 105.371094 "/>
<path style="fill:none;stroke-width:1.2;stroke-linecap:butt;stroke-linejoin:miter;stroke:rgb(0%,0%,0%);stroke-opacity:1;stroke-miterlimit:10;" d="M 162.648438 97.957031 L 130.863281 103.972656 "/>
<path style="fill:none;stroke-width:1.2;stroke-linecap:butt;stroke-linejoin:miter;stroke:rgb(0%,0%,0%);stroke-opacity:1;stroke-miterlimit:10;" d="M 162.648438 97.957031 L 167.992188 82.6875 "/>
<path style="fill:none;stroke-width:1.2;stroke-linecap:butt;stroke-linejoin:miter;stroke:rgb(0%,80%,0%);stroke-opacity:1;stroke-miterlimit:10;" d="M 167.992188 82.6875 L 173.332031 67.421875 "/>
<path style="fill:none;stroke-width:1.2;stroke-linecap:butt;stroke-linejoin:miter;stroke:rgb(0%,0%,0%);stroke-opacity:1;stroke-miterlimit:10;" d="M 130.863281 103.972656 L 120.183594 134.507812 "/>
<path style="fill:none;stroke-width:1.2;stroke-linecap:butt;stroke-linejoin:miter;stroke:rgb(0%,0%,0%);stroke-opacity:1;stroke-miterlimit:10;" d="M 136.980469 109.539062 L 128.4375 133.96875 "/>
<path style=" stroke:none;fill-rule:nonzero;fill:rgb(100%,100%,100%);fill-opacity:1;" d="M 166.332031 59.421875 L 180.332031 59.421875 L 180.332031 75.421875 L 166.332031 75.421875 Z M 166.332031 59.421875 "/>
<g style="fill:rgb(0%,80%,0%);fill-opacity:1;">
  <use xlink:href="#glyph0-3" x="166.332031" y="71.797852"/>
  <use xlink:href="#glyph0-4" x="175.638672" y="71.797852"/>
</g>
</g>
</svg>

<svg xmlns="http://www.w3.org/2000/svg" xmlns:xlink="http://www.w3.org/1999/xlink" width="300pt" height="300pt" viewBox="0 0 300 300"><defs><symbol overflow="visible"><path d="M.64 2.297v-11.47h6.5v11.47zm.735-.72h5.047V-8.436H1.375zm0 0"/></symbol><symbol overflow="visible" id="a"><path d="M1.28-9.484H3l4.203 7.937v-7.937h1.25V0H6.72L2.515-7.922V0H1.28zm0 0"/></symbol><symbol overflow="visible" id="b"><path d="M5.125-8.61c-.938 0-1.684.352-2.234 1.047-.542.688-.812 1.633-.812 2.83 0 1.198.27 2.147.813 2.842.55.687 1.297 1.03 2.235 1.03.926 0 1.66-.343 2.203-1.03.55-.696.828-1.645.828-2.844 0-1.196-.277-2.14-.828-2.829-.543-.695-1.277-1.046-2.203-1.046zm0-1.046c1.32 0 2.38.45 3.172 1.344.8.898 1.203 2.09 1.203 3.578 0 1.5-.402 2.7-1.203 3.593C7.504-.255 6.445.186 5.125.186c-1.336 0-2.402-.44-3.203-1.328C1.13-2.036.734-3.235.734-4.735c0-1.49.395-2.68 1.188-3.579.8-.894 1.867-1.343 3.203-1.343zm0 0"/></symbol><symbol overflow="visible" id="c"><path d="M8.375-8.75v1.36c-.438-.407-.902-.708-1.39-.907-.48-.195-.997-.297-1.548-.297-1.085 0-1.917.336-2.5 1-.574.657-.86 1.61-.86 2.86 0 1.25.286 2.21.86 2.875.583.657 1.415.985 2.5.985.55 0 1.067-.098 1.547-.297.49-.195.954-.492 1.39-.89v1.328c-.448.312-.92.546-1.42.703-.5.143-1.032.217-1.595.217-1.438 0-2.57-.437-3.39-1.312C1.144-2.008.733-3.21.733-4.735c0-1.52.41-2.718 1.235-3.593.82-.883 1.952-1.328 3.39-1.328.562 0 1.093.078 1.593.234.508.15.984.37 1.422.672zm0 0"/></symbol><symbol overflow="visible" id="d"><path d="M1.22-9.875h1.17V0H1.22zm0 0"/></symbol></defs><g><path fill="#fff" d="M0 0h300v300H0z"/><path d="M197.215 211.574l7.808-3.594" stroke-width="1.2" stroke="#000" stroke-miterlimit="10" fill="none"/><path d="M205.023 207.98l7.805-3.597M212.828 204.383l11.777 11.09" stroke-width="1.2" stroke="#00f" stroke-miterlimit="10" fill="none"/><path d="M224.605 215.473l11.774 11.09M226.645 175.133l-6.907 14.625" stroke-width="1.2" stroke="#000" stroke-miterlimit="10" fill="none"/><path d="M219.738 189.758l-6.91 14.625" stroke-width="1.2" stroke="#00f" stroke-miterlimit="10" fill="none"/><path d="M207.828 196.383h10v16h-10zm0 0" fill="#fff"/><use xlink:href="#a" x="207.828" y="208.759" fill="#00f"/><path d="M236.38 226.563m2.843-.96l-.504-.916m3.343-.05l-1-1.828m3.843.866l-1.504-2.742m4.344 1.78l-2.004-3.66m4.844 2.696l-2.504-4.57m5.348 3.61l-3.008-5.49m5.848 4.524l-3.508-6.398m6.35 5.437l-4.01-7.316m6.85 6.355l-4.507-8.23m7.348 7.266l-5.008-9.145m7.707 8.23l-5.484-10.01" stroke="#000" stroke-miterlimit="10" fill="none"/><path d="M204.594 232.578l31.785-6.016M264.75 211.02l-6.016-31.786" stroke-width="1.2" stroke="#000" stroke-miterlimit="10" fill="none"/><path d="M226.645 175.133m2.863.89l.133-1.03m2.735 1.925l.262-2.07m2.6 2.96l.396-3.1m2.47 3.99l.53-4.136m2.336 5.028l.66-5.168m2.202 6.062l.793-6.207m2.07 7.098l.926-7.242m1.94 8.133l1.057-8.274m1.81 9.164l1.186-9.308m1.676 10.203l1.32-10.343m1.398 11.188l1.45-11.325" stroke="#000" stroke-miterlimit="10" fill="none"/><path d="M226.645 175.133l-32.47 2.394M194.176 177.527l-10.684 30.536M183.492 208.063l21.102 24.515M183.492 208.063l-15.89 3.007" stroke-width="1.2" stroke="#000" stroke-miterlimit="10" fill="none"/><path d="M167.602 211.07l-15.895 3.008" stroke-width="1.2" stroke="#f00" stroke-miterlimit="10" fill="none"/><path d="M130.605 189.56l16.774 28.24 8.655-7.445zm0 0"/><path d="M146.707 206.078h11v16h-11zm0 0" fill="#fff"/><use xlink:href="#b" x="146.707" y="218.454" fill="#f00"/><path d="M130.605 189.56l-31.785 6.018M130.605 189.56l10.68-30.537M98.82 195.578l-21.105-24.52M90.94 198.09l-16.88-19.613M88.137 226.113l10.683-30.535M77.715 171.06l-31.78 6.014M45.934 177.074L35.25 207.61M52.047 182.64l-8.543 24.43M35.25 207.61l21.102 24.52M56.352 232.13l31.785-6.017M58.117 224.047l25.426-4.813M141.285 159.023l31.785-6.015M143.047 150.945l25.43-4.812M120.184 134.508l21.1 24.515M173.07 153.008l10.684-30.535M183.754 122.473l-21.106-24.516M175.875 124.988l-16.883-19.617M162.648 97.957l-31.785 6.016M162.648 97.957l5.344-15.27" stroke-width="1.2" stroke="#000" stroke-miterlimit="10" fill="none"/><path d="M167.992 82.688l5.34-15.266" stroke-width="1.2" stroke="#0c0" stroke-miterlimit="10" fill="none"/><path d="M130.863 103.973l-10.68 30.535M136.98 109.54l-8.542 24.43" stroke-width="1.2" stroke="#000" stroke-miterlimit="10" fill="none"/><path d="M166.332 59.422h14v16h-14zm0 0" fill="#fff"/><g fill="#0c0"><use xlink:href="#c" x="166.332" y="71.798"/><use xlink:href="#d" x="175.639" y="71.798"/></g></g></svg>
